!!!COM: Mozart, Wolfgang Amadeus
!!!CDT: 1756/01/27-1791/12/05
!!!OTL: String Quartet No. 1 in G Major
!!!OMV: Mvmt. 3
!!!OMD: Menuetto
!!!SCT: K 80
**kern	**dynam	**kern	**dynam	**kern	**dynam	**kern	**dynam
*Icello	*Icello	*Iviola	*Iviola	*Ivioln	*Ivioln	*Ivioln	*Ivioln
*>[A,A,B,B,C,A,A,B,B,C,D,D,E]	*>[A,A,B,B,C,A,A,B,B,C,D,D,E]	*>[A,A,B,B,C,A,A,B,B,C,D,D,E]	*>[A,A,B,B,C,A,A,B,B,C,D,D,E]	*>[A,A,B,B,C,A,A,B,B,C,D,D,E]	*>[A,A,B,B,C,A,A,B,B,C,D,D,E]	*>[A,A,B,B,C,A,A,B,B,C,D,D,E]	*>[A,A,B,B,C,A,A,B,B,C,D,D,E]
*>A	*>A	*>A	*>A	*>A	*>A	*>A	*>A
*clefF4	*	*clefC3	*	*clefG2	*	*clefG2	*
*k[f#]	*	*k[f#]	*	*k[f#]	*	*k[f#]	*
*G:	*	*G:	*	*G:	*	*G:	*
*M3/4	*	*M3/4	*	*M3/4	*	*M3/4	*
4G\xx	f	2.r	.	4g/xx	f	2.dd\xx	f
4r	.	.	.	4b/	.	.	.
4r	.	.	.	4g/	.	.	.
=2	=2	=2	=2	=2	=2	=2	=2
2.r	.	2.r	.	4f#/	.	2.ccc\	.
.	.	.	.	4a/	.	.	.
.	.	.	.	4d/	.	.	.
=3	=3	=3	=3	=3	=3	=3	=3
2.r	.	2r	.	4g/	.	4bb\	.
!	!	!	!	!	!	! 8dddP/	!
.	.	.	.	4e/	.	4cccp\	.
!	!	!	!	!	!	! 8bbP/	!
.	.	4e\xx	f	4c/	.	4aap\	.
=4	=4	=4	=4	=4	=4	=4	=4
4D'\	.	(2B/	.	2.d/	.	(2gg\	.
(4D\	.	.	.	.	.	.	.
4C/)	.	4A/)	.	.	.	4ff#\)	.
=5	=5	=5	=5	=5	=5	=5	=5
(4BB/	.	(4d\	.	(4g/	.	(4gg\	.
4AA/	.	4f#\	.	4a/	.	4aa\	.
4GG/)	.	4g\)	.	4b/)	.	4bb\)	.
=6	=6	=6	=6	=6	=6	=6	=6
4FF#'/	.	4a'\xx	.	4cc'\	.	4ccc'\	.
(4F#\	.	2d\	.	(4a/	.	(4cc\	.
4G\)	.	.	.	4g/)	.	4b\)	.
=7	=7	=7	=7	=7	=7	=7	=7
4C/	.	4c\	.	4e/	.	(8a/L	.
.	.	.	.	.	.	8b/J)	.
4D\	.	4B/	.	4d/	.	4g/	.
4D\	.	4A/	.	4c/	.	4f#/	.
=8	=8	=8	=8	=8	=8	=8	=8
4GG/	.	2G/	.	2B/	.	2g/	.
4BB/	.	.	.	.	.	.	.
4D\	.	4r	.	4r	.	4r	.
=9:!!:	=9:!!:	=9:!!:	=9:!!:	=9:!!:	=9:!!:	=9:!!:	=9:!!:
*>B	*>B	*>B	*>B	*>B	*>B	*>B	*>B
(4G\	fp	4r	.	(8b\Lxx	fp	(8bb\Lxx	fp
.	.	.	.	8cc\J)	.	8ccc\J)	.
4F#\)	.	(8d\Lxx	p	4a/	.	4aa\	.
.	.	8f#\J)	.	.	.	.	.
4F#'\	.	4a'\	.	4r	.	4r	.
=10	=10	=10	=10	=10	=10	=10	=10
(4E\	fp	4r	.	(8g/Lxx	fp	(8gg\Lxx	fp
.	.	.	.	8a/J)	.	8aa\J)	.
4D\)	.	(8A/L	.	4f#/	.	4ff#\	.
.	.	8d/J)	.	.	.	.	.
4D'\	.	4f#'\	.	4r	.	4r	.
=11	=11	=11	=11	=11	=11	=11	=11
2.GG/	fp	2r	.	(4e/xx	fp	(4ee\xx	fp
.	.	.	.	4g/	.	4gg\	.
.	.	4g\	.	4b/)	.	4bb\)	.
=12	=12	=12	=12	=12	=12	=12	=12
4AA/	.	(2f#\	.	(2d/	.	(2dd\	.
(4A\	.	.	.	.	.	.	.
4G\)	.	4e\)	.	4c#/)	.	4cc#\)	.
=13	=13	=13	=13	=13	=13	=13	=13
(4F#\	.	4r	.	(4d/	.	(4dd\	.
4E\	.	(4c#\	.	4e/	.	4ee\	.
4D\)	.	4d\)	.	4f#/	.	4ff#\	.
=14	=14	=14	=14	=14	=14	=14	=14
(4B\	.	(4d\	.	4g/	.	4gg\	.
4A\	.	4f#\	.	4a/	.	4aa\	.
4G\)	.	4g\)	.	4b/)	.	4bb\)	.
=15	=15	=15	=15	=15	=15	=15	=15
4F#'\	.	4f#\	.	4a/	.	4aa\	.
4G'\	.	(8a\L	.	(8f#/L	.	(8ff#\L	.
.	.	8f#\)	.	8d/)	.	8dd\)	.
4A'\	.	(8g\	.	(8e/	.	(8ee\	.
.	.	8e\J)	.	8c#/J)	.	8cc#\J)	.
=16	=16	=16	=16	=16	=16	=16	=16
4D\	.	4d\	.	4d/	.	[2.dd\	.
4r	.	4r	.	4f#/	.	.	.
4r	.	4r	.	4a/	.	.	.
=17	=17	=17	=17	=17	=17	=17	=17
2.r	.	2.r	.	(2ccn\xx	.	4dd\]	.
.	.	.	.	.	.	(4ff#\xx	.
.	.	.	.	4b\)xx	.	4gg\	.
=18	=18	=18	=18	=18	=18	=18	=18
2.r	.	2.r	.	(2f#/xx	.	4aa\	.
.	.	.	.	.	.	4ccc\	.
.	.	.	.	4g/)xx	.	4bb\)xx	.
=19	=19	=19	=19	=19	=19	=19	=19
2.r	.	4C/	.	4r	.	4eee\	.
.	.	4c\	.	4a/	.	4ee\	.
.	.	4c#\	.	4a/	.	4aa\	.
=20	=20	=20	=20	=20	=20	=20	=20
2.r	.	4d\	.	2.a/	.	(2gg\	.
.	.	4A/	.	.	.	.	.
.	.	4D/	.	.	.	4ff#\)	.
=21	=21	=21	=21	=21	=21	=21	=21
2.r	.	2.r	.	4g/xx	f	2.dd\xx	f
.	.	.	.	4b/	.	.	.
.	.	.	.	4g/	.	.	.
=22	=22	=22	=22	=22	=22	=22	=22
2.r	.	2.r	.	4f#/	.	2.ccc\	.
.	.	.	.	4a/	.	.	.
.	.	.	.	4d/	.	.	.
=23	=23	=23	=23	=23	=23	=23	=23
2.r	.	2r	.	4g/	.	4bb\	.
!	!	!	!	!	!	! 8dddP/	!
.	.	.	.	4e/	.	4cccp\	.
!	!	!	!	!	!	! 8bbP/	!
.	.	4e\xx	f	4c/	.	4aap\	.
=24	=24	=24	=24	=24	=24	=24	=24
4D'\xx	f	(2B/	.	2.d/	.	(2gg\	.
(4D\	.	.	.	.	.	.	.
4C/)	.	4A/)	.	.	.	4ff#\)	.
=25	=25	=25	=25	=25	=25	=25	=25
(4BB/	.	(4d\	.	(4g/	.	(4gg\	.
4AA/	.	4f#\	.	4a/	.	4aa\	.
4GG/)	.	4g\)	.	4b/)	.	4bb\)	.
=26	=26	=26	=26	=26	=26	=26	=26
4FF#'/	.	4a'\	.	4cc'\	.	4ccc'\	.
(4F#\	.	2d\	.	(4a/	.	(4cc\	.
4G\)	.	.	.	4g/)	.	4b\)	.
=27	=27	=27	=27	=27	=27	=27	=27
4C/	.	4r	.	4e/	.	(8a/L	.
.	.	.	.	.	.	8b/J)	.
4D\	.	4d\	.	4B/	.	4g/	.
4D\	.	4d\	.	4A/	.	4f#/	.
=28	=28	=28	=28	=28	=28	=28	=28
4GG;/	.	2d;\	.	2B;/	.	2g;/	.
4BB/	.	.	.	.	.	.	.
4D\	.	4r	.	4r	.	4r	.
=29:|!	=29:|!	=29:|!	=29:|!	=29:|!	=29:|!	=29:|!	=29:|!
*>C	*>C	*>C	*>C	*>C	*>C	*>C	*>C
*k[]	*	*k[]	*	*k[]	*	*k[]	*
*C:	*	*C:	*	*C:	*	*C:	*
*M3/4	*	*M3/4	*	*M3/4	*	*M3/4	*
!! Trio
4c\xx	p	4e\xx	p	4g'/xx	p	4g'/xx	p
4c\	.	4e\	.	4g'/	.	4cc'\	.
4c\	.	4e\	.	4g'/	.	4ee'\	.
=30	=30	=30	=30	=30	=30	=30	=30
4B\	.	4d\	.	4g/	.	(2gg\	.
4B\	.	4d\	.	4g/	.	.	.
4B\	.	4d\	.	4g/	.	8dd\)	.
.	.	.	.	.	.	8r	.
=31	=31	=31	=31	=31	=31	=31	=31
4A\	.	4c\	.	4e/	.	4e'/	.
4A\	.	4c\	.	4e/	.	4a'/	.
4A\	.	4c\	.	4e/	.	4cc'\	.
=32	=32	=32	=32	=32	=32	=32	=32
4G\	.	4B/	.	4e/	.	(2ee\	.
4G\	.	4B/	.	4e/	.	.	.
4G\	.	4B/	.	4e/	.	8b\)	.
.	.	.	.	.	.	8r	.
=33	=33	=33	=33	=33	=33	=33	=33
4F\	.	4A/	.	4c/	.	4c'/	.
4F\	.	4A/	.	4c/	.	4f'/	.
4F\	.	4A/	.	4c/	.	4a'/	.
=34	=34	=34	=34	=34	=34	=34	=34
4E\	.	4G/	.	4c/	.	(8g/L	.
.	.	.	.	.	.	8cc/J)	.
4E\	.	4G/	.	4c/	.	4.cc\	.
4E\	.	4G/	.	4c/	.	.	.
.	.	.	.	.	.	8ee\	.
=35	=35	=35	=35	=35	=35	=35	=35
4F\	.	4F/	.	4c/	.	4a/	.
4D\	.	(8a\L	.	8r	.	(8ff\L	.
.	.	8f\)	.	(8a/L	.	8dd\)	.
4G\	.	(8e\	.	8g/	.	(8cc\	.
.	.	8d\J)	.	8f/J)	.	8b\J)	.
=36	=36	=36	=36	=36	=36	=36	=36
!	!	! 16dP/	!	! 16fP/	!	! 16bP/	!
4C/	.	2ep\	.	2ep/	.	2ccp\	.
4GG/	.	.	.	.	.	.	.
4CC/	.	4r	.	4r	.	4r	.
=37:!!:	=37:!!:	=37:!!:	=37:!!:	=37:!!:	=37:!!:	=37:!!:	=37:!!:
*>D	*	*>D	*	*>D	*	*>D	*
2.r	.	4g\xx 4G\	f	(4.gg\xx	f	2.r	.
.	.	4g\ 4G\	.	.	.	.	.
.	.	.	.	16ff#\LL	.	.	.
.	.	.	.	16ee\JJ)	.	.	.
.	.	4g\ 4G\	.	4dd\	.	.	.
=38	=38	=38	=38	=38	=38	=38	=38
2.r	.	4g\ 4G\	.	(4.ee\	.	(4.gg\xx	f
.	.	4g\ 4G\	.	.	.	.	.
.	.	.	.	16dd\LL	.	16ff#\LL	.
.	.	.	.	16cc\JJ)	.	16ee\JJ)	.
.	.	4g\ 4G\	.	4b\	.	4dd\	.
=39	=39	=39	=39	=39	=39	=39	=39
2.r	.	4G/	p	4g/	p	4b\	p
.	.	4G/	.	4g/	.	4b\	.
.	.	4G/	.	8a/L	.	8cc\L	.
.	.	.	.	8f#/J	.	8a\J	.
=40	=40	=40	=40	=40	=40	=40	=40
2.r	.	4G/	.	4g/	.	4b\	.
.	.	4G/	.	4a/	.	4ccT\	.
.	.	4G/	.	4b\	.	4dd\	.
=41	=41	=41	=41	=41	=41	=41	=41
4GG/	f	4g\ 4G\	f	2.r	.	8G'/L	f
.	.	.	.	.	.	(8gg\	.
4r	.	4r	.	.	.	8ff#\)	.
.	.	.	.	.	.	8ee'\	.
4r	.	4r	.	.	.	8dd'\	.
.	.	.	.	.	.	8cc'\J	.
=42	=42	=42	=42	=42	=42	=42	=42
4GG/	.	4g\ 4G\	.	8G'/L	f	8b'\L	.
.	.	.	.	(8gg\	.	(8ee\	.
4r	.	4r	.	8ff#\)	.	8dd\)	.
.	.	.	.	8ee'\	.	8cc'\	.
4r	.	4r	.	8dd'\	.	8b'\	.
.	.	.	.	8cc'\J	.	8a'\J	.
=43	=43	=43	=43	=43	=43	=43	=43
*	*	*	*	*^	*	*	*
4G\	.	4d\	.	8b/L	2ryy	.	4g/	.
.	.	.	.	8g/J	.	.	.	.
4C/	.	4c\	.	4ee\	.	.	4A/	.
4D\	.	4A/	.	(4cc/	4d\	.	(8.ff#t\L	.
.	.	.	.	.	.	.	32ee\LL	.
.	.	.	.	.	.	.	32ff#\JJJ)	.
=44	=44	=44	=44	=44	=44	=44	=44	=44
*	*	*	*	*v	*v	*	*	*
4GG/	.	4G/	.	4b\)	.	4gg\	.
4GG/	.	(8B\L	.	4G/	.	4g/	.
.	.	8d\)	.	.	.	.	.
(8.BT\L	.	(8d\	.	[4g/	.	4r	.
.	.	8f\J)	.	.	.	.	.
32A\LL	.	.	.	.	.	.	.
32B\JJJ)	.	.	.	.	.	.	.
=45	=45	=45	=45	=45	=45	=45	=45
4c\xx	p	4e\xx	p	4g/]xx	p	(4g/xx	p
4c\	.	4e\	.	4g/	.	4cc\)	.
4c\	.	4e\	.	4g/	.	4ee'\	.
=46	=46	=46	=46	=46	=46	=46	=46
4B\	.	4d\	.	4g/	.	(2gg\	.
4B\	.	4d\	.	4g/	.	.	.
4B\	.	4d\	.	4g/	.	8dd\)	.
.	.	.	.	.	.	8r	.
=47	=47	=47	=47	=47	=47	=47	=47
4A\	.	4c\	.	4e/	.	(4e/	.
4A\	.	4c\	.	4e/	.	4a/)	.
4A\	.	4c\	.	4e/	.	4cc'\	.
=48	=48	=48	=48	=48	=48	=48	=48
4G\	.	4B/	.	4e/	.	(2ee\	.
4G\	.	4B/	.	4e/	.	.	.
4G\	.	4B/	.	4e/	.	8b\)	.
.	.	.	.	.	.	8r	.
=49	=49	=49	=49	=49	=49	=49	=49
4F\	.	4A/	.	4c/	.	(4c/	.
4F\	.	4A/	.	4c/	.	4fn/)	.
4F\	.	4A/	.	4c/	.	4a'/	.
=50	=50	=50	=50	=50	=50	=50	=50
4E\	.	4G/	.	4c/	.	(8g/L	.
.	.	.	.	.	.	8cc/J)	.
4E\	.	4G/	.	4c/	.	4.cc\	.
4E\	.	4G/	.	4c/	.	.	.
.	.	.	.	.	.	8ee\	.
=51	=51	=51	=51	=51	=51	=51	=51
4F\	.	4F/	.	4c/	.	4a/	.
4D\	.	(8a\L	.	8r	.	(8ffn\L	.
.	.	8f\)	.	(8a/L	.	8dd\)	.
4G\	.	(8e\	.	8g/	.	(8cc\	.
.	.	8d\J)	.	8f/J)	.	8b\J)	.
=52	=52	=52	=52	=52	=52	=52	=52
!	!	! 16dP/	!	! 16fP/	!	! 16bP/	!
4C/	.	2ep\	.	2ep/	.	2ccp\	.
4CC/	.	.	.	.	.	.	.
4r	.	4r	.	4r	.	4r	.
!! Menuetto da capo
==:|!	==:|!	==:|!	==:|!	==:|!	==:|!	==:|!	==:|!
*>E	*>E	*>E	*>E	*>E	*>E	*>E	*>E
*-	*-	*-	*-	*-	*-	*-	*-
!!!YOR: Breitkopf & Härtel Edition
!!!ENC: Edmund Correia, Jr.
!!!OCY: Italia
!!!OPC: Loti near Milan
!!!ODT: 1770/03/15
!!!EST: stage2
!!!END: 1993/08/17
!!!KEY: 4109338369
!!!YEC: Copyright (c) 1994, 2000 Center for Computer Assisted Research in the Humanities
!!!YEM: Rights to all derivative editions reserved.
!!!YEM: Refer to licensing agreement for further details.
!!!YEN: United States of America
!!!SCA: Chronologisch-thematisches Verzeichnis sämtlicher Tonwerke Wolfgang Amade Mozarts (L. von Köchel; 1862, 2/1905, 3/1937, 1947)
!!!EMD: Converted from MuseData to Humdrum Dec 16, 2000, by Andreas Kornstaedt using muse2kern.
!!!EMD: Manual editing by Craig Sapp, Nov 2001
!!!RWG: Appoggiaturas of spine 'Violino I' need manual editing in measures: 3, 23, 36, 52
!!!RWG: Appoggiaturas of spine 'Violino II' need manual editing in measures: 36, 52
!!!RWG: Appoggiaturas of spine 'Viola' need manual editing in measures: 36, 52
